X: 1387
T: Touch Me If You Dare
M:C|
L:1/8
N:"No. 1" "collected by Miss Kennedy"
B:O'Neill's 1387
Z:"Transcribed by Bob Safranek, rjs@gsp.org"
Z:All ornaments (~) are turns
K:G
dc | BG ~G2 AGFD  | BGGd       Bdgd | BG ~G2 AGED  | EAAB A2 dc |
     BG ~G2 AGFD  | BGGd       Bdgd | B2 AG  AGED  | EGGA G2    ||
z2 | dega   b2 ag | ((3efg) dg egdB | dega   b2 ag | eaab a2 ge |
     dega   b2 ag | ((3efg) dg egdc | B2 BG  AGED  | EGGA G2    |]


